X:1
T:Introit Psalm Tones — Gregorian Psalm Tones 1 through 8
C:Gregorian chant; ancient, public domain
S:Traditional Gregorian chant; public domain
M:C
L:1/4
K:C
%% Tone 1: reciting D5, mediant cadence F-E-D, final G
d d d d | d d d d | d d e d | d2 c B | A4 ||
%% Tone 2: reciting C5, mediant F-E-D-E, final E
c c c c | c c c c | c c d c | B A G A | A4 ||
%% Tone 3: reciting B4, mediant G-A-B-c, final E
B B B B | B B B B | G A B c | c B A G | G4 ||
%% Tone 4: reciting A4, mediant G-F-E, final E
A A A A | A A A A | G G F E | D2 E F | G4 ||
%% Tone 5: reciting G4, mediant c-B-G, final E
G G G G | G G G G | c c B G | G F E D | E4 ||
%% Tone 6: reciting F4, mediant G-A-G-F, final F
F F F F | F F F F | G G A G | G F E D | F4 ||
%% Tone 7: reciting G4, mediant A-B-c, final G
G G G G | G G G G | G A B c | c B A G | G4 ||
%% Tone 8: reciting G4, mediant A-G, final C
G G G G | G G G G | G G A G | G F E D | C4 ||

## Musiquik
&0ZZZZ.ZZZZ.ZZ[Z.jYX.w)YYYY.YYYY.YYZY.XWVW.w)XXXX.XXXX.VWXY.YXWV.v)WWWW.WWWW.VVUT.cTU.v)VVVV.VVVV.YYXV.VUTS.t)UUUU.UUUU.VVWV.VUTS.u)VVVV.VVVV.VWXY.YXWV.v)VVVV.VVVV.VVWV.VUTS.r)

#Lyrics
[Tone 1] The Lord is my shepherd; I shall not want. (Psalm 23:1) [Tone 2] Make haste, O God, to deliver me! (Psalm 70:1) [Tone 3] I was glad when they said to me, "Let us go to the house of the Lord!" (Psalm 122:1) [Tone 4] The Lord is my light and my salvation; whom shall I fear? (Psalm 27:1) [Tone 5] O Lord, open my lips, and my mouth will declare your praise. (Psalm 51:15) [Tone 6] Blessed is the one whose transgression is forgiven. (Psalm 32:1) [Tone 7] The Lord is my strength and my shield. (Psalm 28:7) [Tone 8] Oh come, let us sing to the Lord. (Psalm 95:1)

#Citations and References

Words: Various Psalms (KJV/ESV); public domain.
Music: 'Gregorian Psalm Tones 1–8' Ancient Gregorian chant; public domain.
Setting: Traditional introit tones for Lutheran and Roman use; public domain.
copyright: public domain.

https://openhymnal.org
